X:2602
T:Because He Was a Bonny Lad
R:Reel
C:Trad.
O:Scotland
Z:Paul Hardy's Annex Tunebook 2015 (see www.paulhardy.net). Creative Commons cc by-nc-sa licenced.
M:4/4
L:1/8
Q:1/4=100
K:Amix
e|"A"c>B Aa "D"fa "A"e>c|"Bm"df "A"ec "E"B/B/B B>e|"A"c>B Aa "D"fa "A"e>c|"D"d<f "E"ec "A"A/A/A A:|
e|"A"c>B Ac "D"de f<d|"A"cA ec "E"B/B/B B>d|"A"c>B Ac "D"de f>g|"E"a/g/f/e/ ac "A"A/A/A A||
e|"A"cA eA "D"f>A eA|"A"c<A ec "E"B/B/B B>g|"A"af "G"ge "D"fd "A"ec|"D"d<f "E"ec "A"A/A/A A|]

